src/pos-icons/briefcase-search.svg

<svg height="24" viewBox="0 0 24 24" width="24" xmlns="http://www.w3.org/2000/svg"><path d="m16.5 12c2.5 0 4.5 2 4.5 4.5 0 .88-.25 1.71-.69 2.4l3.08 3.1-1.39 1.39-3.12-3.07c-.69.43-1.51.68-2.38.68-2.5 0-4.5-2-4.5-4.5s2-4.5 4.5-4.5m0 2a2.5 2.5 0 0 0 -2.5 2.5 2.5 2.5 0 0 0 2.5 2.5 2.5 2.5 0 0 0 2.5-2.5 2.5 2.5 0 0 0 -2.5-2.5m-6.5-12h4a2 2 0 0 1 2 2v2h4a2 2 0 0 1 2 2v5.03c-1.15-1.82-3.18-3.03-5.5-3.03a6.5 6.5 0 0 0 -6.5 6.5c0 1.75.69 3.33 1.81 4.5h-7.81c-1.11 0-2-.9-2-2v-11c0-1.11.89-2 2-2h4v-2c0-1.11.89-2 2-2m4 4v-2h-4v2z"/></svg>

<?xml version="1.0" encoding="UTF-8"?><!DOCTYPE svg PUBLIC "-//W3C//DTD SVG 1.1//EN" "http://www.w3.org/Graphics/SVG/1.1/DTD/svg11.dtd"><svg xmlns="http://www.w3.org/2000/svg" xmlns:xlink="http://www.w3.org/1999/xlink" version="1.1" id="mdi-briefcase-search" width="24" height="24" viewBox="0 0 24 24"><path d="M16.5,12C19,12 21,14 21,16.5C21,17.38 20.75,18.21 20.31,18.9L23.39,22L22,23.39L18.88,20.32C18.19,20.75 17.37,21 16.5,21C14,21 12,19 12,16.5C12,14 14,12 16.5,12M16.5,14A2.5,2.5 0 0,0 14,16.5A2.5,2.5 0 0,0 16.5,19A2.5,2.5 0 0,0 19,16.5A2.5,2.5 0 0,0 16.5,14M10,2H14A2,2 0 0,1 16,4V6H20A2,2 0 0,1 22,8V13.03C20.85,11.21 18.82,10 16.5,10A6.5,6.5 0 0,0 10,16.5C10,18.25 10.69,19.83 11.81,21H4C2.89,21 2,20.1 2,19V8C2,6.89 2.89,6 4,6H8V4C8,2.89 8.89,2 10,2M14,6V4H10V6H14Z" /></svg>
